icons/svg/file-export.svg

﻿<?xml version="1.0" encoding="utf-8"?>
<!DOCTYPE svg PUBLIC "-//W3C//DTD SVG 1.1//EN" "http://www.w3.org/Graphics/SVG/1.1/DTD/svg11.dtd">
<svg xmlns="http://www.w3.org/2000/svg" xmlns:xlink="http://www.w3.org/1999/xlink" version="1.1" baseProfile="full" width="24" height="24" viewBox="0 0 24.00 24.00" enable-background="new 0 0 24.00 24.00" xml:space="preserve">
	<path fill="#000000" fill-opacity="1" stroke-width="0.2" stroke-linejoin="round" d="M 6.00125,1.9975C 4.8925,1.9975 4.00875,2.895 4.00875,3.99875L 3.99875,20C 3.99875,21.1037 4.8875,21.9975 5.99125,21.9975L 17.9975,21.9975C 19.1012,21.9975 20,21.1037 20,20L 20,7.9975L 13.9987,1.9975M 12.9975,3.49585L 18.5012,8.99875L 12.9975,8.99875M 8.93125,12.2212L 16.0012,12.2212L 16.0012,19.2925L 13.8775,17.1725L 11.05,20L 8.2225,17.1725L 11.05,14.3463"/>
</svg>

<svg xmlns="http://www.w3.org/2000/svg" version="1.1" baseProfile="full" width="24" height="24" viewBox="0 0 24.00 24.00" xml:space="preserve"><path fill="#000" fill-opacity="1" stroke-width=".2" stroke-linejoin="round" d="M6 1.998c-1.107 0-1.99.897-1.99 2L4 20c0 1.104.888 1.997 1.99 1.997h12.007C19.1 21.997 20 21.104 20 20V7.997l-6-6m-1.002 1.5L18.5 8.998H13M8.93 12.22H16v7.072l-2.123-2.12L11.05 20l-2.828-2.828 2.828-2.826"/></svg>
